flaticon/romance-lifestyle/valentines-day.svg

<svg xmlns="http://www.w3.org/2000/svg" width="32" height="32" viewBox="0 0 24 24">
    <path d="M 22.398438 2.199219 L 17.5625 2.199219 C 17.378906 1.277344 16.582031 0.601562 15.601562 0.601562 C 15.359375 0.601562 15.199219 0.761719 15.199219 1 C 15.199219 1.238281 15.359375 1.398438 15.601562 1.398438 C 16.28125 1.398438 16.800781 1.921875 16.800781 2.601562 C 16.800781 3.28125 16.28125 3.800781 15.601562 3.800781 C 15.359375 3.800781 15.199219 3.960938 15.199219 4.199219 C 15.199219 4.441406 15.359375 4.601562 15.601562 4.601562 C 16.582031 4.601562 17.378906 3.921875 17.5625 3 L 22.398438 3 C 22.839844 3 23.199219 3.359375 23.199219 3.800781 L 23.199219 6.601562 L 0.800781 6.601562 L 0.800781 3.800781 C 0.800781 3.359375 1.160156 3 1.601562 3 L 8 3 C 8.238281 3 8.398438 2.839844 8.398438 2.601562 C 8.398438 2.359375 8.238281 2.199219 8 2.199219 L 7.265625 2.199219 C 7.421875 1.726562 7.863281 1.398438 8.398438 1.398438 C 9.078125 1.398438 9.601562 1.921875 9.601562 2.601562 C 9.601562 3.28125 9.078125 3.800781 8.398438 3.800781 C 8.160156 3.800781 8 3.960938 8 4.199219 C 8 4.441406 8.160156 4.601562 8.398438 4.601562 C 9.519531 4.601562 10.398438 3.71875 10.398438 2.601562 C 10.398438 1.480469 9.519531 0.601562 8.398438 0.601562 C 7.417969 0.601562 6.621094 1.277344 6.4375 2.199219 L 1.601562 2.199219 C 0.71875 2.199219 0 2.921875 0 3.800781 L 0 21.800781 C 0 22.679688 0.71875 23.398438 1.601562 23.398438 L 22.398438 23.398438 C 23.28125 23.398438 24 22.679688 24 21.800781 L 24 3.800781 C 24 2.921875 23.28125 2.199219 22.398438 2.199219 Z M 22.398438 22.601562 L 1.601562 22.601562 C 1.160156 22.601562 0.800781 22.238281 0.800781 21.800781 L 0.800781 7.398438 L 23.199219 7.398438 L 23.199219 21.800781 C 23.199219 22.238281 22.839844 22.601562 22.398438 22.601562 Z M 22.398438 22.601562"/>
    <path d="M10.800781 1.398438C11.480469 1.398438 12 1.921875 12 2.601562 12 3.28125 11.480469 3.800781 10.800781 3.800781 10.558594 3.800781 10.398438 3.960938 10.398438 4.199219 10.398438 4.441406 10.558594 4.601562 10.800781 4.601562 11.921875 4.601562 12.800781 3.71875 12.800781 2.601562 12.800781 1.480469 11.921875.601562 10.800781.601562 10.558594.601562 10.398438.761719 10.398438 1 10.398438 1.238281 10.558594 1.398438 10.800781 1.398438zM13.199219 1.398438C13.878906 1.398438 14.398438 1.921875 14.398438 2.601562 14.398438 3.28125 13.878906 3.800781 13.199219 3.800781 12.960938 3.800781 12.800781 3.960938 12.800781 4.199219 12.800781 4.441406 12.960938 4.601562 13.199219 4.601562 14.320312 4.601562 15.199219 3.71875 15.199219 2.601562 15.199219 1.480469 14.320312.601562 13.199219.601562 12.960938.601562 12.800781.761719 12.800781 1 12.800781 1.238281 12.960938 1.398438 13.199219 1.398438zM14.679688 8.839844C13.601562 8.839844 12.640625 9.441406 12 10.441406 11.359375 9.441406 10.398438 8.839844 9.320312 8.839844 8.28125 8.839844 7.320312 9.320312 6.441406 10.28125 5.441406 11.398438 4.839844 13.921875 6.839844 15.800781 7.71875 16.640625 11.679688 20.800781 11.71875 20.839844L12 21.160156 12.28125 20.839844C12.320312 20.800781 16.28125 16.640625 17.160156 15.800781 19.121094 13.921875 18.558594 11.398438 17.558594 10.28125 16.71875 9.320312 15.71875 8.839844 14.679688 8.839844zM16.601562 15.28125C15.839844 16 12.960938 19.039062 12 20.039062 11.078125 19.039062 8.160156 16 7.398438 15.28125 5.800781 13.761719 6.238281 11.761719 7.039062 10.878906 7.71875 10.121094 8.519531 9.71875 9.320312 9.71875 10.480469 9.71875 11.28125 10.640625 11.640625 11.519531L12 12.480469 12.359375 11.558594C12.800781 10.441406 13.679688 9.71875 14.679688 9.71875 15.519531 9.71875 16.28125 10.121094 16.960938 10.878906 17.761719 11.761719 18.160156 13.761719 16.601562 15.28125zM16.601562 15.28125"/>
</svg>

<svg xmlns="http://www.w3.org/2000/svg" width="32" height="32" viewBox="0 0 24 24">
    <path d="M22.398 2.2h-4.835A1.98 1.98 0 0 0 15.601.601c-.243 0-.403.16-.403.398 0 .238.16.398.403.398.68 0 1.199.524 1.199 1.204 0 .68-.52 1.199-1.2 1.199-.242 0-.402.16-.402.398 0 .242.16.403.403.403.98 0 1.777-.68 1.96-1.602h4.836c.442 0 .801.36.801.8v2.802H.801V3.8c0-.442.36-.801.8-.801H8c.238 0 .398-.16.398-.398 0-.243-.16-.403-.398-.403h-.734c.156-.472.597-.8 1.132-.8.68 0 1.204.523 1.204 1.203S9.078 3.8 8.398 3.8C8.16 3.8 8 3.96 8 4.199c0 .242.16.403.398.403 1.122 0 2-.883 2-2 0-1.122-.878-2-2-2a1.98 1.98 0 0 0-1.96 1.597H1.601C.719 2.2 0 2.922 0 3.801v18c0 .879.719 1.597 1.602 1.597h20.796c.883 0 1.602-.718 1.602-1.597v-18c0-.88-.719-1.602-1.602-1.602zm0 20.402H1.602A.804.804 0 0 1 .8 21.8V7.398h22.398v14.403c0 .437-.36.8-.8.8zm0 0"/>
    <path d="M10.8 1.398c.68 0 1.2.524 1.2 1.204 0 .68-.52 1.199-1.2 1.199-.241 0-.402.16-.402.398 0 .242.16.403.403.403 1.12 0 2-.883 2-2 0-1.122-.88-2-2-2-.242 0-.403.16-.403.398 0 .238.16.398.403.398zm0 0"/>
    <path d="M13.2 1.398c.679 0 1.198.524 1.198 1.204 0 .68-.52 1.199-1.199 1.199-.238 0-.398.16-.398.398 0 .242.16.403.398.403 1.121 0 2-.883 2-2 0-1.122-.879-2-2-2-.238 0-.398.16-.398.398 0 .238.16.398.398.398zm0 0M14.68 8.84c-1.078 0-2.04.601-2.68 1.601-.64-1-1.602-1.601-2.68-1.601-1.039 0-2 .48-2.879 1.441a3.982 3.982 0 0 0 .399 5.52c.879.84 4.84 5 4.879 5.039l.281.32.281-.32c.04-.04 4-4.2 4.88-5.04 1.96-1.878 1.398-4.402.398-5.519-.84-.96-1.84-1.441-2.88-1.441zm1.922 6.441C15.84 16 12.96 19.04 12 20.04c-.922-1-3.84-4.039-4.602-4.758-1.597-1.52-1.16-3.52-.359-4.402.68-.758 1.48-1.16 2.281-1.16 1.16 0 1.961.922 2.32 1.8l.36.961.36-.921c.44-1.118 1.32-1.84 2.32-1.84.84 0 1.601.402 2.28 1.16.802.883 1.2 2.883-.358 4.402zm0 0"/>
</svg>
